X:105
T:Burke's
T:Matt Molloy's Jig
T:Coughlan's
T:Charlie Mulvihill's Jig
R:jig
S:Mike Rafferty
H:Brendan Mulvihill found the manuscript in a certain Charlie
Mulvihill's attic
H:(as part of Charlie's estate, not related, as Alan Ng recalls:
"Brendan taught H:this tune at the 1993 Milwaukee summer school, and
H:I transcribed it for the occasion of the Great IRTRAD 1994 Milwaukee
Tune
H:Swap.  Only some of the ornaments that Brendan taught us are
included."
B:Bulmer & Sharpley, as "Burke's"
Z:lesl
M:6/8
K:D
dAF AGF|dAF AGF|BEF GFE|BEF GFE|
DFA DGB|Adc d2e|fed cBA|GFE d3:||
gfd faa|fdc def|~e3 ~g3|e2d cde|
fdf geg|a2a bag|fed cBA| Gfe d3:||

